X: 18223
T: Humours Of Kiltyclogher, The
R: jig
M: 6/8
K: Adorian
B|AGE G2 E|c2 E EGE|DED D2 E|GED D2 B|
AGE G2 E|c2 E DEG|~A2 A BAG|~A3 ~A2:|
|:B|c2 B c2 d|ecA ABc|BGG GAB|dBG GAB|
c2 B c2 d|ecA ABc|BAG GAB|~A3 ~A2:|

